symbols/web/event_note/materialsymbolssharp/event_note_wght500gradN25fill1_40px.svg

<svg xmlns="http://www.w3.org/2000/svg" height="40" width="40"><path d="M11.792 22.75V20h16.416v2.75Zm0 7.125v-2.75h11.416v2.75Zm-6.834 6.792V6.042h5.417V3.25h3v2.792h13.25V3.25h3v2.792h5.417v30.625Zm3.042-3h24V16.458H8Z"/></svg>

<svg xmlns="http://www.w3.org/2000/svg" height="40" width="40"><path d="M11.792 22.75V20H28.208V22.75ZM11.792 29.875V27.125H23.208V29.875ZM4.958 36.667V6.042H10.375V3.25H13.375V6.042H26.625V3.25H29.625V6.042H35.042V36.667ZM8 33.667H32V16.458H8Z"/></svg>
